X:1
T:Peace
T:Peace
T:Arthur J. Veteto
T:J. Lee Austin, 1912
T:Public Domain Courtesy of the Cyber Hymnal™
C:Arthur J. Veteto
Z:Public Domain
Z:Courtesy of the Cyber Hymnal™
%%score ( 1 2 ) ( 3 4 )
L:1/8
Q:1/4=103
M:4/4
K:C
V:1 treble 
V:2 treble 
V:3 bass 
V:4 bass 
V:1
 [EG]3 [EG] [CE][EG][FA][^D^F] | [EG]6 [CE]2 | [CE]3 [CE] [B,D][B,D][CE][C^F] | [DG]6 z2 | %4
w: 1.~Peace of mind and peace of|soul The|world can nev- er, nev- er|give,|
w: 2.~Peace has con- quered doubt and|fear, I|ful- ly trust my Sav- ior|now;|
w: 3.~Peace is mine, what- e’er be-|fall, From|world- ly strife I am se-|cure;|
 [EG]3 [EG] [CE][EG][FA][^D^F] | [EG]6 [CE]2 | [CE]3 [CE] [B,D][CE][DF][B,D] | C6 || %8
w: Now is mine, thro’ Christ I’m|whole, And|by His pre- cepts I will|live.|
w: He to bless is ev- er|near, And|to His will in love I|bow.|
w: Je- sus is my all in|all, And|faith- ful He will e’er en-|dure.|
"^Refrain" [EG]2 | [EG]3 [Ec] [Ge][Gc][Fc][FA] | [EG]6 z2 | [FA]3 [FA] G[Gc][FB][Ec] | %12
w: ||||
w: To|Christ, the Lord, all prais- es|be,|By His grace I’ve gained re-|
w: ||||
 [Gd]6 [Gd]2 | [Ge]3 [Fd] [Ec][Ec][Gc][GB] | ([FA]2 [Ac]4) [GB][FA] | [EG]2 [Gc]2 [Fd]2 [FB]2 | %16
w: ||||
w: lease; O’er|sin I’ve won the vic- to-|ry, * And a-|bide in peace, sweet|
w: ||||
 [Ec]6 z2 |] %17
w: |
w: peace!|
w: |
V:2
 x8 | x8 | x8 | x8 | x8 | x8 | x8 | C6 || x2 | x8 | x8 | x4 G x3 | x8 | x8 | x8 | x8 | x8 |] %17
V:3
 [C,C]3 [C,C] [C,G,][C,C][C,C][C,C] | [C,C]6 [C,G,]2 | [C,G,]3 [E,G,] G,G,[C,G,][A,,C] | %3
 [G,,B,]6 z2 | [C,C]3 [C,C] [C,G,][C,C][C,C][C,C] | [C,C]6 [C,G,]2 | %6
 [C,G,]3 [E,G,] G,G,[G,,G,][G,,F,] | [C,E,]6 || [C,C]2 | [C,C]3 [C,C] [C,C][E,C][F,A,][F,C] | %10
 [C,C]6 z2 | [F,C]3 [F,C] [E,C][E,C][D,G,][C,C] | [G,B,]6 [G,B,]2 | %13
 C3 [G,B,] [A,C][A,C][E,C][E,C] | [F,C]6 [F,C][F,C] | [C,C]2 [E,C]2 [G,B,]2 [G,,G,]2 | %16
 [C,G,]6 z2 |] %17
V:4
 x8 | x8 | x4 G,G, x2 | x8 | x8 | x8 | x4 G,G, x2 | x6 || x2 | x8 | x8 | x8 | x8 | C3 x5 | x8 | %15
 x8 | x8 |] %17

